X: 40945
T: Trip To Carlisle
R: jig
M: 6/8
K: Dmajor
D|:DED AFD|BGE AFD|DED AFD|def e2 E|
DED AFD|BGE AFD|Bcd edc|1 d3 d2 D:|2 d3 d2 d||
|:ABA ecA|fdB ecA|ABA ecA|g2 f e2 A|
ABA ecA|fdB ecA|Bcd edc|1 d3 d2 d:|2 d3 d3||

